X: 1
T: Sean Ryan's Champion March
Z: ceolachan
S: https://thesession.org/tunes/6580#setting6580
R: barndance
M: 4/4
L: 1/8
K: Amaj
|: EA |c>Bce d>cdf | eAce aecA | c>Bce d2 cd | BEGB AGFE |
c>Bce d>cdf | e>Ace a3 A | c2 ce d3 c | BE G/A/B A2 :|
|: AB |cEAc eaga | fdAF DFAd | g>ebe gebe | a>ec'e aec'e |
c>EAc e2 ga | f>dAF D3 d | g2 f/e/c d2 B/G/B | A2 A>G A2 :|
